;FLAVOR:Marlin
G21 ;metric values
G90 ;absolute positioning
M82 ;set extruder to absolute mode
M106 ;start with the fan on
G28 X0 Y0 ;move X/Y to min endstops
G28 Z0 ;move Z to min endstops
G29 ;Run the auto bed leveling
G1 Z15.0 F4200 ;move the platform down 15mm
G92 E0 ;zero the extruded length
G1 F200 E3 ;extrude 3mm of feed stock
G92 E0 ;zero the extruded length again
G1 F4200 ;default speed
;Put printing message on LCD screen
M117
;LAYER_COUNT:15
;LAYER:0
G0 X72.15831 Y83.76667 Z0.5
;TYPE:WALL-INNER
G1 X72.52963 Y83.65512 E0.01516
G1 X72.625 Y83.62646 E0.01905
G1 X72.625 Y109.97345 E1.04897
G1 X72.28041 Y109.86999 E1.06304
G1 X72.31259 Y109.87967 E1.06435
G1 X121.3862 Y109.85 E2.98267
G1 X121.4057 Y109.84414 E2.98347
G1 X121.7257 Y109.74799 E2.99653
G1 X121.11873 Y109.93474 E3.02135
G1 X121.60236 Y83.81494 E4.04257
G1 X121.44031 Y83.76626 E4.04918
G1 X121.44015 Y83.76626 E4.04919
G1 X72.38388 Y83.69891 E5.96683
G0 X110.9727 Y86.80451 
;TYPE:WALL-INNER
G1 X111.2328 Y86.68793 E5.97798
G1 X111.09056 Y86.75168 E5.98407
G1 X110.96955 Y86.80594 E5.98925
G1 X110.85285 Y86.86539 E5.99437
G1 X110.79482 Y86.89789 E5.99697
G1 X110.61077 Y87.00827 E6.00536
G1 X110.51981 Y87.07764 E6.00983
G1 X110.33759 Y87.22971 E6.01911
G1 X110.26537 Y87.30605 E6.02322
G1 X110.10178 Y87.48109 E6.03259
G1 X110.0053 Y87.62264 E6.03928
G1 X109.86213 Y87.86073 E6.05014
G1 X109.82401 Y87.94285 E6.05368
G1 X109.74691 Y88.11153 E6.06093
G1 X109.7486 Y88.10703 E6.06112
G1 X109.72863 Y88.1648 E6.06351
G1 X109.70316 Y88.25648 E6.06723
G1 X109.64987 Y88.438 E6.07462
G1 X109.62473 Y88.61776 E6.08172
G1 X109.60444 Y89.08815 E6.10012
G1 X109.61701 Y89.17727 E6.10364
G1 X109.64973 Y89.40935 E6.1128
G1 X109.69025 Y89.55101 E6.11856
G1 X109.73851 Y89.71974 E6.12542
G1 X109.79856 Y89.85154 E6.13109
G1 X109.89215 Y90.057 E6.13991
G1 X109.95923 Y90.15677 E6.14461
G1 X110.11016 Y90.38125 E6.15518
G1 X110.57519 Y90.87005 E6.18156
G1 X110.38038 Y90.66528 E6.19261
G1 X110.41455 Y90.69242 E6.19431
G1 X110.4371 Y90.71196 E6.19548
G1 X110.55808 Y90.79935 E6.20131
G1 X110.70953 Y90.90876 E6.20862
G1 X110.87771 Y90.99501 E6.216
G1 X111.02248 Y91.06924 E6.22236
G1 X111.188 Y91.12524 E6.22919
G1 X111.33903 Y91.17635 E6.23543
G1 X111.52652 Y91.21104 E6.24288
G1 X111.66591 Y91.23682 E6.24842
G1 X111.75462 Y91.24056 E6.25189
G1 X111.9886 Y91.2504 E6.26105
G1 X112.21698 Y91.22824 E6.27002
G1 X112.31036 Y91.21918 E6.27368
G1 X112.51842 Y91.16853 E6.28205
G1 X112.63857 Y91.13926 E6.28689
G1 X112.85778 Y91.05053 E6.29613
G1 X112.9496 Y91.01336 E6.30001
G1 X113.19865 Y90.87128 E6.31121
G1 X113.27303 Y90.81585 E6.31484
G1 X113.42367 Y90.70356 E6.32218
G1 X113.53297 Y90.6015 E6.32803
G1 X113.59796 Y90.5408 E6.33151
G1 X113.72416 Y90.39228 E6.33913
G1 X113.7926 Y90.31173 E6.34326
G1 X113.86594 Y90.19808 E6.34854
G1 X113.95908 Y90.05378 E6.35526
G1 X114.10486 Y89.73853 E6.36884
G1 X114.10333 Y89.74184 E6.36898
G1 X114.16157 Y89.54261 E6.37709
G1 X114.1986 Y89.41585 E6.38225
G1 X114.22424 Y89.25681 E6.38855
G1 X114.23925 Y89.16371 E6.39224
G1 X114.24293 Y88.95794 E6.40028
G1 X114.2461 Y88.77886 E6.40728
G1 X114.24389 Y88.75632 E6.40817
G1 X114.24352 Y88.75267 E6.40831
G1 X114.24005 Y88.71721 E6.40971
G1 X114.2289 Y88.63209 E6.41306
G1 X114.21809 Y88.56534 E6.4157
G1 X114.18551 Y88.38139 E6.42301
G1 X114.15065 Y88.26358 E6.42781
G1 X114.07998 Y88.05909 E6.43627
G1 X114.02903 Y87.94811 E6.44104
G1 X113.8967 Y87.70048 E6.45202
G1 X113.85426 Y87.63762 E6.45498
G1 X113.73425 Y87.46453 E6.46322
G1 X113.66686 Y87.38764 E6.46721
G1 X113.74573 Y87.43564 E6.47082
G1 X113.20813 Y86.99157 E6.49808
G1 X113.4171 Y87.11778 E6.50762
G1 X113.13328 Y86.94656 E6.52058
G1 X112.97367 Y86.8496 E6.52788
G1 X112.93872 Y86.83264 E6.5294
G1 X112.88363 Y86.80839 E6.53175
G1 X112.7823 Y86.76807 E6.53601
G1 X112.56877 Y86.69299 E6.54486
G1 X112.48544 Y86.67283 E6.54821
G1 X112.27788 Y86.62767 E6.55652
G1 X112.17348 Y86.61764 E6.56062
G1 X111.96432 Y86.60063 E6.56882
G1 X111.86265 Y86.60566 E6.5728
G1 X111.65948 Y86.61437 E6.58075
G1 X111.52599 Y86.63909 E6.58606
G1 X111.32138 Y86.67963 E6.59421
G1 X111.17567 Y86.72874 E6.60022
G1 X110.9727 Y86.80451 E6.60869
G0 X80.17633 Y102.89642 
;TYPE:WALL-INNER
G1 X80.29254 Y102.80983 E6.61435
G1 X80.40134 Y102.72872 E6.61966
G1 X80.65037 Y102.58665 E6.63087
G1 X80.83206 Y102.5131 E6.63853
G1 X80.96141 Y102.46075 E6.64398
G1 X81.12505 Y102.42088 E6.65057
G1 X81.28962 Y102.38082 E6.65719
G1 X81.6761 Y102.34332 E6.67237
G1 X81.61143 Y102.34959 E6.67491
G1 X81.81093 Y102.358 E6.68271
G1 X81.93407 Y102.36316 E6.68753
G1 X82.2739 Y102.42606 E6.70104
G1 X82.261 Y102.42367 E6.70155
G1 X82.4518 Y102.48823 E6.70943
G1 X82.57754 Y102.53078 E6.71462
G1 X82.66203 Y102.5741 E6.71833
G1 X82.89045 Y102.69122 E6.72836
G1 X83.05384 Y102.80926 E6.73624
G1 X83.16276 Y102.88794 E6.74149
G1 X83.19485 Y102.91572 E6.74315
G1 X83.23288 Y102.94865 E6.74512
G1 X83.34904 Y103.07077 E6.75171
G1 X83.48982 Y103.21872 E6.75969
G1 X83.5538 Y103.31388 E6.76417
G1 X83.70784 Y103.54298 E6.77497
G1 X83.84558 Y103.84537 E6.78795
G1 X83.86147 Y103.88022 E6.78945
G1 X83.89994 Y104.01468 E6.79492
G1 X83.95027 Y104.19066 E6.80207
G1 X83.97379 Y104.35751 E6.80866
G1 X83.99555 Y104.5118 E6.81475
G1 X83.99562 Y104.67413 E6.8211
G1 X83.99566 Y104.83644 E6.82744
G1 X83.99325 Y104.85361 E6.82812
G1 X83.98992 Y104.8775 E6.82906
G1 X83.98005 Y104.94893 E6.83188
G1 X83.94277 Y105.18491 E6.84122
G1 X83.91552 Y105.28053 E6.84511
G1 X83.87403 Y105.43104 E6.85121
G1 X83.85006 Y105.49767 E6.85398
G1 X83.86022 Y105.47581 E6.85492
G1 X83.79788 Y105.61121 E6.86075
G1 X83.66506 Y105.8724 E6.8722
G1 X83.62935 Y105.92512 E6.87469
G1 X83.47215 Y106.14959 E6.8854
G1 X83.39322 Y106.2329 E6.88989
G1 X83.1945 Y106.43384 E6.90094
G1 X83.12712 Y106.48588 E6.90426
G1 X82.89925 Y106.64855 E6.91521
G1 X82.99638 Y106.52214 E6.92144
G1 X82.78354 Y106.72546 E6.93295
G1 X82.66964 Y106.77535 E6.93781
G1 X82.56386 Y106.82387 E6.94236
G1 X82.47204 Y106.85469 E6.94614
G1 X82.24875 Y106.9286 E6.95534
G1 X82.13745 Y106.94957 E6.95977
G1 X81.88346 Y106.98896 E6.96981
G1 X81.81576 Y106.99207 E6.97246
G1 X81.56763 Y106.99615 E6.98216
G1 X81.50587 Y106.98993 E6.98459
G1 X81.27714 Y106.96606 E6.99358
G1 X81.18307 Y106.94345 E6.99736
G1 X80.95347 Y106.88493 E7.00662
G1 X80.85802 Y106.84732 E7.01063
G1 X80.72288 Y106.79715 E7.01627
G1 X80.62922 Y106.75178 E7.02034
G1 X80.62595 Y106.74981 E7.02049
G1 X80.62248 Y106.72684 E7.02139
G1 X80.36493 Y106.60787 E7.03248
G1 X80.18979 Y106.45606 E7.04154
G1 X79.9758 Y106.26034 E7.05288
G1 X79.98919 Y106.27014 E7.05353
G1 X79.86429 Y106.1374 E7.06065
G1 X79.79197 Y106.02964 E7.06573
G1 X79.64615 Y105.81253 E7.07595
G1 X79.59078 Y105.69397 E7.08107
G1 X79.48093 Y105.44017 E7.09188
G1 X79.46773 Y105.39462 E7.09373
G1 X79.40779 Y105.19305 E7.10195
G1 X79.38969 Y105.08212 E7.10634
G1 X79.36414 Y104.92496 E7.11257
G1 X79.35946 Y104.87012 E7.11472
G1 X79.36075 Y104.43624 E7.13168
G1 X79.37266 Y104.36243 E7.1346
G1 X79.4014 Y104.18417 E7.14166
G1 X79.43696 Y104.06244 E7.14662
G1 X79.49667 Y103.85816 E7.15494
G1 X79.57314 Y103.69278 E7.16206
G1 X79.64094 Y103.5462 E7.16837
G1 X79.71897 Y103.4253 E7.174
G1 X79.80743 Y103.28827 E7.18037
G1 X79.89481 Y103.18541 E7.18565
G1 X80.00201 Y103.05923 E7.19212
G1 X80.1634 Y102.90849 E7.20076
G1 X80.17633 Y102.89642 E7.20145
G0 X72.10346 Y83.23497 
;TYPE:WALL-OUTER
G1 X72.14084 Y83.22374 E7.20297
G1 X72.1 Y83.23601 E7.20464
G1 Y110.36398 E8.26509
G1 X72.08761 Y110.36026 E8.2656
G1 X72.13667 Y110.375 E8.2676
G1 X121.46335 E10.19581
G1 X121.50073 Y110.36377 E10.19734
G1 X121.64581 Y110.32018 E10.20326
G1 X121.5 Y83.23602 E11.26201
G1 X121.65446 Y83.28242 E11.26832
G1 X121.51756 Y83.24129 E11.27391
G1 X72.13665 Y83.225 E13.20424
G1 X72.10346 Y83.23497 E13.20559
G0 X111.10563 Y87.12848 
;TYPE:WALL-OUTER
G1 X111.22608 Y87.07449 E13.21075
G1 X111.12071 Y87.12172 E13.21527
G1 X111.02289 Y87.17132 E13.21956
G1 X110.9528 Y87.21098 E13.2227
G1 X110.82048 Y87.28853 E13.2287
G1 X110.72306 Y87.36347 E13.2335
G1 X110.59248 Y87.46957 E13.24008
G1 X110.49617 Y87.57091 E13.24555
G1 X110.38723 Y87.68377 E13.25168
G1 X110.29292 Y87.8231 E13.25825
G1 X110.18048 Y88.00619 E13.26665
G1 X110.13518 Y88.10374 E13.27086
G1 X110.07547 Y88.23215 E13.27639
G1 X110.07231 Y88.24077 E13.27675
G1 X110.06619 Y88.25734 E13.27744
G1 X110.0294 Y88.38629 E13.28269
G1 X109.9948 Y88.49863 E13.28728
G1 X109.97307 Y88.65393 E13.29341
G1 X109.95438 Y88.925 E13.30403
G1 X109.95443 Y89.06353 E13.30945
G1 X109.96893 Y89.16634 E13.31351
G1 X109.99291 Y89.33645 E13.32022
G1 X110.02866 Y89.46143 E13.3253
G1 X110.06784 Y89.59839 E13.33087
G1 X110.13292 Y89.74124 E13.33701
G1 X110.19871 Y89.88567 E13.34321
G1 X110.26922 Y89.99054 E13.34815
G1 X110.38411 Y90.16142 E13.3562
G1 X110.64563 Y90.43631 E13.37103
G1 X110.60904 Y90.39785 E13.37311
G1 X110.64255 Y90.42686 E13.37484
G1 X110.65465 Y90.43735 E13.37547
G1 X110.79952 Y90.54199 E13.38245
G1 X110.89294 Y90.60948 E13.38696
G1 X111.01039 Y90.66971 E13.39212
G1 X111.15916 Y90.74599 E13.39865
G1 X111.3226 Y90.80129 E13.4054
G1 X111.42741 Y90.83676 E13.40972
G1 X111.59972 Y90.86864 E13.41657
G1 X111.70529 Y90.88817 E13.42077
G1 X111.79878 Y90.89211 E13.42443
G1 X111.97901 Y90.89969 E13.43148
G1 X112.09544 Y90.88839 E13.43605
G1 X112.25178 Y90.87322 E13.44219
G1 X112.43801 Y90.82788 E13.44968
G1 X112.53092 Y90.80525 E13.45342
G1 X112.73267 Y90.72358 E13.46193
G1 X112.79654 Y90.69773 E13.46462
G1 X113.00664 Y90.57787 E13.47408
G1 X113.07935 Y90.52368 E13.47762
G1 X113.19895 Y90.43453 E13.48346
G1 X113.29252 Y90.34716 E13.48846
G1 X113.34433 Y90.29877 E13.49123
G1 X113.40673 Y90.22533 E13.495
G1 X113.51098 Y90.10263 E13.50129
G1 X113.58541 Y89.9873 E13.50666
G1 X113.65171 Y89.88459 E13.51144
G1 X113.76419 Y89.64135 E13.52191
G1 X113.77471 Y89.6186 E13.52289
G1 X113.82331 Y89.45233 E13.52966
G1 X113.85653 Y89.33861 E13.53429
G1 X113.88199 Y89.18075 E13.54055
G1 X113.88975 Y89.13261 E13.54245
G1 X113.89346 Y88.925 E13.55057
G1 X113.8958 Y88.79295 E13.55573
G1 X113.89467 Y88.78147 E13.55618
G1 X113.89221 Y88.75642 E13.55717
G1 X113.88325 Y88.68714 E13.5599
G1 X113.86918 Y88.60077 E13.56332
G1 X113.84844 Y88.47587 E13.56827
G1 X113.81324 Y88.35847 E13.57306
G1 X113.75896 Y88.19879 E13.57965
G1 X113.7101 Y88.09358 E13.58419
G1 X113.60604 Y87.89546 E13.59293
G1 X113.55293 Y87.81699 E13.59664
G1 X113.46576 Y87.68923 E13.60268
G1 X113.40643 Y87.62191 E13.60619
G1 X113.29459 Y87.50739 E13.61245
G1 X113.21387 Y87.43728 E13.61663
G1 X113.23747 Y87.41817 E13.61781
G1 X112.93457 Y87.23523 E13.63165
G1 X112.81567 Y87.16197 E13.63711
G1 X112.79068 Y87.14987 E13.63819
G1 X112.75086 Y87.13227 E13.63989
G1 X112.64492 Y87.09057 E13.64434
G1 X112.48571 Y87.03299 E13.65096
G1 X112.38322 Y87.00838 E13.65508
G1 X112.24518 Y86.97614 E13.66062
G1 X112.11332 Y86.96334 E13.6658
G1 X111.98298 Y86.95015 E13.67092
G1 X111.84049 Y86.95614 E13.6765
G1 X111.72416 Y86.95834 E13.68105
G1 X111.56448 Y86.98788 E13.68739
G1 X111.42832 Y87.01294 E13.69281
G1 X111.28755 Y87.06057 E13.69862
G1 X111.10563 Y87.12848 E13.70621
G0 X80.40104 Y103.16546 
;TYPE:WALL-OUTER
G1 X80.49892 Y103.09253 E13.71098
G1 X80.59336 Y103.02213 E13.71558
G1 X80.80346 Y102.90227 E13.72504
G1 X80.86907 Y102.87571 E13.72781
G1 X81.06908 Y102.79475 E13.73624
G1 X81.16199 Y102.77212 E13.73998
G1 X81.34822 Y102.72678 E13.74747
G1 X81.50456 Y102.71161 E13.75361
G1 X81.62099 Y102.70031 E13.75818
G1 X81.80121 Y102.7079 E13.76523
G1 X81.8947 Y102.71182 E13.76889
G1 X82.00028 Y102.73136 E13.77309
G1 X82.1726 Y102.76325 E13.77994
G1 X82.41254 Y102.84444 E13.78984
G1 X82.44085 Y102.85402 E13.79101
G1 X82.53948 Y102.90459 E13.79534
G1 X82.70706 Y102.99052 E13.8027
G1 X82.85283 Y103.09582 E13.80973
G1 X82.94534 Y103.16265 E13.8142
G1 X82.95977 Y103.17514 E13.81494
G1 X82.99096 Y103.20215 E13.81655
G1 X83.10234 Y103.31924 E13.82287
G1 X83.21588 Y103.43856 E13.82931
G1 X83.26163 Y103.50661 E13.83252
G1 X83.40128 Y103.71432 E13.8423
G1 X83.51991 Y103.97474 E13.85349
G1 X83.53216 Y104.00162 E13.85464
G1 X83.56201 Y104.10594 E13.85888
G1 X83.60709 Y104.26356 E13.86529
G1 X83.63106 Y104.43362 E13.872
G1 X83.64557 Y104.53647 E13.87606
G1 X83.64562 Y104.675 E13.88148
G1 X83.64565 Y104.81214 E13.88684
G1 X83.64311 Y104.83033 E13.88756
G1 X83.63031 Y104.92194 E13.89117
G1 X83.60603 Y105.08948 E13.89779
G1 X83.57571 Y105.19582 E13.90212
G1 X83.53321 Y105.34413 E13.90815
G1 X83.53237 Y105.34644 E13.90824
G1 X83.5409 Y105.33243 E13.90888
G1 X83.47383 Y105.47686 E13.91511
G1 X83.3743 Y105.67757 E13.92387
G1 X83.32304 Y105.75331 E13.92744
G1 X83.21765 Y105.90932 E13.9348
G1 X83.12317 Y106.00874 E13.94016
G1 X82.98008 Y106.15721 E13.94822
G1 X82.89753 Y106.22069 E13.95229
G1 X82.75711 Y106.32684 E13.95917
G1 X82.66504 Y106.37892 E13.96331
G1 X82.64617 Y106.40348 E13.96452
G1 X82.49438 Y106.47152 E13.97102
G1 X82.45307 Y106.49186 E13.97282
G1 X82.33224 Y106.53273 E13.97781
G1 X82.18129 Y106.58514 E13.98405
G1 X82.05999 Y106.6076 E13.98888
G1 X81.86626 Y106.63937 E13.99655
G1 X81.78398 Y106.64283 E13.99977
G1 X81.60312 Y106.64795 E14.00684
G1 X81.51089 Y106.63901 E14.01047
G1 X81.35787 Y106.6255 E14.01647
G1 X81.24051 Y106.59732 E14.02119
G1 X81.08223 Y106.55948 E14.02755
G1 X80.97265 Y106.51634 E14.03215
G1 X80.83465 Y106.4624 E14.03795
G1 X80.82259 Y106.45656 E14.03847
G1 X80.83495 Y106.46715 E14.03911
G1 X80.68519 Y106.37671 E14.04594
G1 X80.59301 Y106.34238 E14.04979
G1 X80.40631 Y106.18024 E14.05946
G1 X80.24689 Y106.03858 E14.06779
G1 X80.20864 Y105.99519 E14.07005
G1 X80.15548 Y105.94319 E14.07296
G1 X80.06121 Y105.80391 E14.07954
G1 X79.9624 Y105.66255 E14.08628
G1 X79.90112 Y105.53057 E14.09197
G1 X79.81695 Y105.34221 E14.10003
G1 X79.79362 Y105.26443 E14.1032
G1 X79.75337 Y105.13757 E14.10841
G1 X79.73353 Y105.01588 E14.11323
G1 X79.71099 Y104.8759 E14.11877
G1 X79.70933 Y104.85914 E14.11943
G1 X79.70655 Y104.675 E14.12663
G1 X79.71025 Y104.46739 E14.13474
G1 X79.71953 Y104.40987 E14.13702
G1 X79.74347 Y104.26139 E14.1429
G1 X79.77669 Y104.14767 E14.14753
G1 X79.82529 Y103.9814 E14.1543
G1 X79.89903 Y103.82193 E14.16117
G1 X79.9483 Y103.71541 E14.16576
G1 X80.02505 Y103.5965 E14.17129
G1 X80.08903 Y103.49738 E14.1759
G1 X80.18027 Y103.38997 E14.18141
G1 X80.25567 Y103.30123 E14.18596
G1 X80.33658 Y103.22566 E14.19029
G1 X80.40104 Y103.16546 E14.19374
G0 X72.15831 Y83.76667 
G0 F60 X72.81542 Y110.13988 
;TYPE:FILL
G1 X72.8 Y110.12592 E14.19513
G0 X72.8 Y109.35771 
G1 X73.65508 Y110.13184 E14.27243
G0 X74.49474 Y110.12381 
G1 X72.8 Y108.58951 E14.42563
G0 X72.8 Y107.82131 
G1 X75.33439 Y110.11578 E14.65472
G0 X76.17405 Y110.10775 
G1 X72.8 Y107.05311 E14.95972
G0 X72.8 Y106.28491 
G1 X77.01371 Y110.09972 E15.34063
G0 X77.85337 Y110.09169 
G1 X72.8 Y105.51671 E15.79743
G0 X72.8 Y104.74851 
G1 X78.69302 Y110.08366 E16.33013
G0 X79.53268 Y110.07563 
G1 X72.8 Y103.9803 E16.93874
G0 X72.8 Y103.2121 
G1 X80.37234 Y110.0676 E17.62325
G0 X81.212 Y110.05957 
G1 X72.8 Y102.4439 E18.38365
G0 X72.8 Y101.6757 
G1 X82.05166 Y110.05154 E19.21996
G0 X82.89131 Y110.04351 
G1 X72.8 Y100.9075 E20.13218
G0 X72.8 Y100.1393 
G1 X83.73097 Y110.03548 E21.12029
G0 X84.57063 Y110.02745 
G1 X81.39666 Y107.15395 E21.4072
G0 X79.23043 Y105.19278 
G1 X72.8 Y99.3711 E21.98849
G0 X72.8 Y98.6029 
G1 X79.19111 Y104.38899 E22.56622
G0 X82.20273 Y107.11551 
G1 X85.41029 Y110.01942 E22.85616
G0 X86.24994 Y110.01139 
G1 X82.81578 Y106.90232 E23.1666
G0 X79.34797 Y103.76279 
G1 X72.8 Y97.83469 E23.75851
G0 X72.8 Y97.06649 
G1 X79.62614 Y103.24643 E24.37556
G0 X83.30055 Y106.573 
G1 X87.0896 Y110.00335 E24.71808
G0 X87.92926 Y109.99532 
G1 X83.68343 Y106.15143 E25.10188
G0 X80.00269 Y102.81913 
G1 X72.8 Y96.29829 E25.75297
G0 X72.8 Y95.53009 
G1 X80.47954 Y102.48263 E26.44717
G0 X83.97444 Y105.64669 
G1 X88.76892 Y109.98729 E26.88057
G0 X89.60858 Y109.97926 
G1 X84.14379 Y105.03181 E27.37456
G0 X81.0745 Y102.25308 
G1 X72.8 Y94.76189 E28.12254
G0 X72.8 Y93.99369 
G1 X81.84713 Y102.18436 E28.94037
G0 X84.13633 Y104.25685 
G1 X90.44823 Y109.97123 E29.51093
G0 X91.28789 Y109.9632 
